img/svg/16/net/multi-browserxp.svg

<svg xmlns="http://www.w3.org/2000/svg" viewBox="0 0 16 16" enable-background="new 0 0 16 16"><path d="M14 1h-12c-.552 0-1 .448-1 1v12c0 .552.448 1 1 1h12c.552 0 1-.448 1-1v-12c0-.552-.448-1-1-1zm-3 1h1v1h-1v-1zm-2 0h1v1h-1v-1zm5 11.5c0 .276-.224.5-.5.5h-11c-.276 0-.5-.224-.5-.5v-9c0-.276.224-.5.5-.5h11c.276 0 .5.224.5.5v9zm0-10.5h-1v-1h1v1z" fill-rule="evenodd" clip-rule="evenodd" fill="#ccc"/></svg>

<svg xmlns="http://www.w3.org/2000/svg" viewBox="0 0 16 16"><path fill="#ccc" fill-rule="evenodd" d="M14 1H2a1 1 0 0 0-1 1v12a1 1 0 0 0 1 1h12a1 1 0 0 0 1-1V2a1 1 0 0 0-1-1zm-3 1h1v1h-1V2zM9 2h1v1H9V2zm5 11.5a.5.5 0 0 1-.5.5h-11a.5.5 0 0 1-.5-.5v-9a.5.5 0 0 1 .5-.5h11a.5.5 0 0 1 .5.5v9zM14 3h-1V2h1v1z" clip-rule="evenodd"/></svg>
